X: 20452
M: 6/8
L: 1/8
K: G
(Bc).A G2D | E2D G2D | (Bc).A G2B | (Ad).d (d^c).=c |\
(Bc).A G2D | E2D G2D | {F}E2D {F}E2D | DGG G2 H:|
(d/c/) |\
(Bc).B B2A | B2c d2f | g2f e2d | (dc).B A2(d/c/) |\
(Bc).B B2A | B2c d2f | g2e a2g | (fg).e "Da Capo"d2 |]


